X:191
T: KOMM WIR WOLLEN WANDERN
N: K2445
O: Europa, Mitteleuropa, Deutschland, Dresden
R: Kinder - Lied, Tanz -, Lauf - Spiel
M: 2/4
L: 1/8
K: F
 | cccd | c2A
F | cccd | c2A2 |
cAcA | f2z
d | cABG | F2z2

@@@ Tune index: 7528
